X: 1
T: Piper's Whim, The
M: 9/8
L: 1/8
R: slip jig
K: Gmix
|: A | 
B2 G GDG dBG | B/c/dB gdB deg |
B2 G GDG d2 G | A/B/cA fcA c2 :|
|: A | 
B2 d gdB gdc | B2 d gdB de/^f/g |
[1 B/c/dB gdB gdB | A/B/cA fcA c2  :|
[2 bb/a/g a>g^f g2 e | f2 c A/B/cA fc ||
